X:409
T: Gangong
N: C1444
O: China,Hubei, Zhongxiang
S: I, 432]
R: Shange, Tiange, Checaoge]
M: 2/4
L: 1/8
K: C
c2cA | c2cA | z4 | z4 |
EGAc | EGG2 | c2AG | G4 |
d2e2 | d2A2 | c2dd | c2c2 | EGA2 | G4

@@@ Tune index: 6410
